assets/img/round-concept.svg

<svg width="228" height="124" viewBox="0 0 228 124" fill="none" xmlns="http://www.w3.org/2000/svg">
<path d="M227.092 53.1264C227.027 51.041 226.822 48.9623 226.479 46.9042C226.339 45.8746 226.084 44.8633 225.881 43.8484L225.494 42.339L225.298 41.6009L225.073 40.8628L224.615 39.3866L224.099 37.9361L223.837 37.198C223.744 36.9581 223.645 36.7258 223.549 36.4859L222.966 35.0688C222.148 33.1984 221.231 31.3726 220.22 29.5993C219.231 27.8204 218.113 26.1266 216.957 24.4585C215.802 22.7903 214.544 21.2033 213.215 19.6828C207.425 12.8734 200.385 7.23603 192.474 3.07533C190.301 1.94972 187.566 0.613905 185.647 0.469974C185.038 0.421997 184.433 0.36661 183.846 0.348158C183.292 0.329736 182.737 0.345716 182.185 0.396091C181.392 0.473593 180.587 0.658134 180.709 1.24124C180.794 1.61029 181.237 2.06411 181.816 2.50698C182.104 2.7321 182.425 2.94994 182.754 3.16399C183.082 3.37805 183.407 3.60307 183.717 3.79867C186.606 5.6181 189.806 7.44495 192.729 9.37141C200.785 14.6636 207.834 21.4579 213.027 29.3852C214.302 31.3517 215.462 33.3898 216.503 35.4893C217.516 37.5835 218.379 39.7467 219.087 41.9626C219.212 42.3796 219.349 42.7929 219.456 43.2099L219.784 44.4722L219.95 45.1033L220.087 45.738L220.356 47.0113C220.674 48.7186 220.884 50.4443 220.984 52.178C221.196 55.6418 220.935 59.1182 220.209 62.5115C218.762 69.339 215.43 75.7754 210.831 81.2706C206.299 86.7289 200.671 91.3493 194.56 95.2465C187.452 99.7563 179.65 103.251 171.63 106.119C167.608 107.532 163.511 108.772 159.392 109.905C157.318 110.433 155.255 111.013 153.163 111.466C151.07 111.92 148.989 112.426 146.889 112.85C141.476 113.953 136.015 114.84 130.507 115.511C125.011 116.198 119.487 116.655 113.951 116.94C102.875 117.501 91.7725 117.236 80.736 116.146C75.712 115.654 70.7174 114.955 65.7524 114.05C64.4829 113.828 63.2244 113.57 61.9622 113.338C60.7001 113.105 59.4416 112.836 58.1905 112.551C55.6772 112.016 53.1898 111.4 50.7098 110.706C45.0746 109.173 39.5717 107.189 34.2537 104.776C28.9552 102.387 23.9619 99.3729 19.3808 95.7965C17.0699 93.9685 14.9359 91.9273 13.0073 89.6997C11.0901 87.4731 9.45058 85.0219 8.1247 82.3999C6.79886 79.7688 5.86629 76.9573 5.3568 74.0555L5.16858 72.9669L5.04676 71.8597C4.94712 71.1216 4.925 70.3835 4.8881 69.6454L4.86224 69.0918V66.287C4.86224 65.9179 4.8955 65.5488 4.91026 65.1798C5.01642 62.2193 5.36818 59.2727 5.96201 56.3704C6.54168 53.4763 7.36648 50.6366 8.42735 47.8822C10.5992 42.3863 13.7084 37.3089 17.6168 32.8764C21.5413 28.4673 26.044 24.6091 31.0023 21.4064C33.4825 19.7856 36.0529 18.307 38.7008 16.9777C40.0147 16.295 41.3691 15.686 42.7161 15.066C44.0631 14.446 45.4434 13.8923 46.831 13.3683C49.6395 12.287 52.485 11.3015 55.3784 10.4564C58.2717 9.61128 61.1799 8.8327 64.1249 8.18316C64.863 8.00971 65.6011 7.8473 66.3392 7.69968L68.5536 7.24575C70.0298 6.97265 71.506 6.68104 73.0044 6.44854C75.9789 5.93924 78.9683 5.52961 81.965 5.17162C87.9265 4.46796 93.9125 4.00171 99.9231 3.7729C105.924 3.52194 111.936 3.48497 117.944 3.61414C123.952 3.74331 129.96 4.05346 135.95 4.5074C141.94 4.96134 147.919 5.53332 153.89 6.20869C155.318 6.37107 156.75 6.52972 158.175 6.71794C159.599 6.90616 161.027 7.08709 162.452 7.28269C163.245 7.39341 164.039 7.50401 164.829 7.6258C165.534 7.77055 166.246 7.8789 166.962 7.95052C167.104 7.95062 167.246 7.92199 167.377 7.86618C167.508 7.81038 167.627 7.72858 167.726 7.6258C168.095 7.25674 167.261 6.67746 166.058 6.4671C155.274 4.5923 144.416 3.22183 133.485 2.35579C122.568 1.4922 111.615 1.07884 100.639 1.22646C95.0331 1.30396 89.4457 1.52172 83.836 2.07161C78.2264 2.6215 72.591 3.40383 67.0146 4.49623C64.2246 5.03136 61.453 5.66613 58.6888 6.3415C55.9245 7.01686 53.1825 7.81769 50.4699 8.71818C47.7574 9.61867 45.0559 10.5636 42.4098 11.6892C39.7636 12.8148 37.1397 13.9883 34.5932 15.3464C29.395 18.0477 24.5382 21.3608 20.1263 25.215C17.916 27.18 15.8535 29.3053 13.9558 31.5737C12.0407 33.8478 10.3198 36.2785 8.81118 38.8404C5.76719 44.0173 3.58587 49.6551 2.35274 55.5327C1.61545 58.9246 1.15264 62.3704 0.968792 65.8366C0.920815 66.7962 0.902355 67.7742 0.869141 68.7633C0.869141 69.0069 0.869141 69.2651 0.869141 69.5272L0.887521 70.3096C0.887521 70.83 0.887586 71.354 0.954016 71.8781L1.08682 73.4539L1.30829 75.0188C1.37472 75.5429 1.48914 76.0558 1.59617 76.5687C1.70319 77.0817 1.79174 77.5984 1.94305 78.0967C2.70063 81.0333 3.82791 83.862 5.29779 86.5148C6.6947 89.0303 8.35089 91.3929 10.2394 93.5638C13.8334 97.641 17.9945 101.181 22.5953 104.074C27.0718 106.924 31.792 109.372 36.7005 111.389C39.1781 112.415 41.7197 113.376 44.3252 114.271C46.9381 115.153 49.6211 115.984 52.3927 116.759C63.4643 119.822 74.8238 121.597 86.1943 122.501C97.5666 123.381 108.989 123.408 120.365 122.582C138.017 121.305 155.521 117.98 172.331 112.179C176.118 110.85 179.871 109.404 183.543 107.75C187.239 106.111 190.847 104.282 194.353 102.27C201.365 98.2101 207.986 93.287 213.544 87.1902L214.071 86.6218L214.573 86.0313L215.581 84.8467C216.245 84.0532 216.862 83.2117 217.5 82.3961C218.138 81.5805 218.71 80.7058 219.271 79.8127C219.832 78.9196 220.404 78.0635 220.895 77.1409L221.663 75.7753L222.36 74.3692C222.848 73.4466 223.231 72.4687 223.656 71.5128C224.451 69.5726 225.112 67.5798 225.634 65.5488C226.701 61.4972 227.192 57.3152 227.092 53.1264Z" fill="#DC0C23"/>
</svg>

<svg width="228" height="124" fill="none" xmlns="http://www.w3.org/2000/svg"><path d="M227.092 53.126a46.7 46.7 0 0 0-.613-6.222c-.14-1.03-.395-2.04-.598-3.056l-.387-1.509-.196-.738-.225-.738-.458-1.476-.516-1.45-.262-.739c-.093-.24-.192-.472-.288-.712l-.583-1.417a57.83 57.83 0 0 0-2.746-5.47c-.989-1.779-2.107-3.472-3.263-5.14a53.844 53.844 0 0 0-3.742-4.776 69.989 69.989 0 0 0-20.741-16.608C190.301 1.95 187.566.614 185.647.47c-.609-.048-1.214-.103-1.801-.122a13.386 13.386 0 0 0-1.661.048c-.793.078-1.598.262-1.476.845.085.37.528.823 1.107 1.266.288.225.609.443.938.657.328.214.653.44.963.635 2.889 1.82 6.089 3.646 9.012 5.572 8.056 5.293 15.105 12.087 20.298 20.014a61.158 61.158 0 0 1 3.476 6.104 49.374 49.374 0 0 1 2.584 6.474c.125.417.262.83.369 1.247l.328 1.262.166.631.137.635.269 1.273c.318 1.708.528 3.433.628 5.167a38.229 38.229 0 0 1-.775 10.334c-1.447 6.827-4.779 13.263-9.378 18.759-4.532 5.458-10.16 10.078-16.271 13.975-7.108 4.51-14.91 8.005-22.93 10.873-4.022 1.413-8.119 2.653-12.238 3.786-2.074.528-4.137 1.108-6.229 1.561-2.093.454-4.174.96-6.274 1.384a207.981 207.981 0 0 1-16.382 2.661c-5.496.687-11.02 1.144-16.556 1.429a223.114 223.114 0 0 1-33.215-.794 182.97 182.97 0 0 1-14.984-2.096c-1.27-.222-2.528-.48-3.79-.712a93.11 93.11 0 0 1-3.772-.787c-2.513-.535-5-1.151-7.48-1.845a109.206 109.206 0 0 1-16.456-5.93 72.784 72.784 0 0 1-14.873-8.98 46.993 46.993 0 0 1-6.374-6.096 36.275 36.275 0 0 1-4.882-7.3 30.117 30.117 0 0 1-2.768-8.345l-.188-1.088-.122-1.107c-.1-.738-.122-1.477-.159-2.215l-.026-.553v-2.805c0-.37.034-.738.048-1.107.106-2.96.458-5.907 1.052-8.81a52.068 52.068 0 0 1 2.465-8.488 51.066 51.066 0 0 1 9.19-15.006 65.492 65.492 0 0 1 13.385-11.47 78.2 78.2 0 0 1 7.699-4.428c1.314-.683 2.668-1.292 4.015-1.912a63.389 63.389 0 0 1 4.115-1.698 108.348 108.348 0 0 1 8.547-2.912c2.894-.845 5.802-1.623 8.747-2.273a67.857 67.857 0 0 1 2.214-.483l2.215-.454c1.476-.273 2.952-.565 4.45-.797 2.975-.51 5.964-.92 8.961-1.277a226.71 226.71 0 0 1 17.958-1.4c6.001-.25 12.013-.287 18.021-.158 6.008.13 12.016.44 18.006.893 5.99.454 11.969 1.026 17.94 1.702 1.428.162 2.86.32 4.285.509 1.424.188 2.852.37 4.277.565.793.11 1.587.221 2.377.343.705.145 1.417.253 2.133.325a1.06 1.06 0 0 0 .764-.325c.369-.37-.465-.949-1.668-1.159a352.714 352.714 0 0 0-32.573-4.111c-10.917-.864-21.87-1.277-32.846-1.13-5.606.078-11.193.296-16.803.846-5.61.55-11.245 1.332-16.821 2.424-2.79.535-5.562 1.17-8.326 1.845a105.838 105.838 0 0 0-8.22 2.377c-2.712.9-5.413 1.846-8.06 2.971-2.645 1.126-5.27 2.3-7.816 3.657a73.516 73.516 0 0 0-14.467 9.869 60.155 60.155 0 0 0-6.17 6.359A53.148 53.148 0 0 0 8.81 38.84a55.358 55.358 0 0 0-6.458 16.693A64.625 64.625 0 0 0 .969 65.837c-.048.96-.067 1.937-.1 2.926v.764l.019.783c0 .52 0 1.044.066 1.568l.133 1.576.221 1.565c.067.524.181 1.037.288 1.55.107.513.196 1.03.347 1.528a35.843 35.843 0 0 0 3.355 8.418 41.26 41.26 0 0 0 4.941 7.049 56.721 56.721 0 0 0 12.356 10.51 89.86 89.86 0 0 0 14.105 7.315 132.043 132.043 0 0 0 7.625 2.882c2.613.882 5.296 1.713 8.068 2.488 11.071 3.063 22.43 4.838 33.801 5.742 11.373.88 22.795.907 34.171.081 17.652-1.277 35.156-4.602 51.966-10.403 3.787-1.329 7.54-2.775 11.212-4.429a117.044 117.044 0 0 0 10.81-5.48c7.012-4.06 13.633-8.983 19.191-15.08l.527-.568.502-.59 1.008-1.185c.664-.794 1.281-1.635 1.919-2.45.638-.817 1.21-1.691 1.771-2.584.561-.893 1.133-1.75 1.624-2.672l.768-1.366.697-1.406c.488-.922.871-1.9 1.296-2.856a45.797 45.797 0 0 0 1.978-5.964 44.6 44.6 0 0 0 1.458-12.423Z" fill="#DC0C23"/></svg>
